X:1
T:Palestine (Modern Harp), CM
T:Palestine (Modern Harp), CM
T:Modern Harp, 1846
T:Public Domain Courtesy of the Cyber Hymnal™
C:Modern Harp, 1846
Z:Public Domain
Z:Courtesy of the Cyber Hymnal™
%%score ( 1 2 ) ( 3 4 )
L:1/8
Q:1/4=140
M:4/2
K:A
V:1 treble 
V:2 treble 
V:3 bass 
V:4 bass 
V:1
 [CE]4 | [CA]3 [DB] [Ec]6 [Ec]2 | (d2 B2) (B2 G2) [EA]6 E2 | [DF]4 E4 E4 [B,^D]4 | %4
 (z2 [B,D]2 [A,C]2 [B,D]2) [CE]4 | [CA]3 [DB] [Ec]6 [Ec]2 | (d2 B2) (B2 G2) [EA]6 E2 | %7
 [DF]2 [Fd]4 ([Ac][FB]) A4 z2 x6 | [CA]8 z4 |] %9
V:2
 x4 | x12 | E4 E4 x4 E2 x2 | x4 E4 E4 x4 | [B,E]8 x4 | x12 | E4 E4 x4 E2 x2 | x8 E6 G4 D2 | x12 |] %9
V:3
 [A,,A,]4 | [A,,A,]3 [A,,A,] [A,,A,]6 [A,,A,]2 | (A,2 G,2) (G,2 D2) [A,C]6 [C,A,]2 | %3
 [D,A,]4 [C,A,]4 [B,,G,]4 F,2 A,2 | [E,G,]8 [A,,A,]4 | [A,,A,]3 [A,,A,] [A,,A,]6 [A,,A,]2 | %6
 [E,B,]4 [E,B,]4 [A,,A,]6 [C,A,]2 | [D,A,]2 [B,,B,]4 ([C,E][D,D]) [E,C]4 [E,B,]4 x4 | %8
 [A,,A,]8 z4 |] %9
V:4
 x4 | x12 | E,4 E,4 x8 | x12 B,,4 | x12 | x12 | x16 | x20 | x12 |] %9

